X:1
T:Ashley, CM
T:Ashley, CM
T:Martin Madan, 1747
T:Public Domain Courtesy of the Cyber Hymnal™
C:Martin Madan, 1747
Z:Public Domain
Z:Courtesy of the Cyber Hymnal™
%%score ( 1 2 ) ( 3 4 )
L:1/8
Q:1/4=108
M:4/4
K:A
V:1 treble 
V:2 treble 
V:3 bass 
V:4 bass 
V:1
 [CE]2 [EA][EG] | [EA]2 [EB]2 [Ec]2 (Bd) | [Ec]2 [Ec]2 [EB]2 (ce) | %3
 (BA) ([EG][^DF]) !fermata!E2 [GB]2 | ([GB]A) (AG) A2 ([GB][Ac]) | (dc) (BA) (AG) (FE) | %6
 e2 (dc) [Fd]2 ([Ec][DB]) | [CA]4 |] %8
V:2
 x4 | x6 E2 | x6 E2 | E2 x E2 x3 | x A E2 (EA) x2 | E2 F2 E2 B,2 | (CE) A2 x4 | x4 |] %8
V:3
 [A,,A,]2 [C,E][E,D] | [A,C]2 [G,B,]2 A,2 (A,G,) | [A,,A,]2 A,2 [G,B,]2 (A,C) | %3
 ([G,B,][A,C])A,[B,,A,] !fermata![E,G,]2 [E,D]2 | DC (CB,) [A,C]2 (DE) | E2 (DC) [E,B,]2 [D,G,]2 | %6
 [C,A,]2 [F,A,]2 [B,,A,]2 (A,G,) | [A,,A,]4 |] %8
V:4
 x4 | x4 A,2 E,2 | x2 A,2 A,2 x2 | x2 A, x5 | E,2 E,2 x A,2 x | (G,A,) D,2 x4 | x6 E,2 | x4 |] %8

